svgs/nobitex.svg

<svg width="192" height="192" viewBox="0 0 192 192" fill="none" xmlns="http://www.w3.org/2000/svg">
<path d="M117.384 23.8492C202.656 52.386 172.527 167.262 111.244 166.252C102.759 166.113 95.4979 155.795 94.8289 143.38C94.1853 131.44 96.9127 118.082 109.119 113.749C103.859 120.834 108.107 143.381 118.98 142.261C151.383 138.928 156.037 60.1913 117.384 23.8492Z" stroke="black" stroke-width="12" stroke-linecap="round" stroke-linejoin="round"/>
<path d="M74.6771 168.225C-10.5948 139.688 19.5342 24.8129 80.8171 25.8227C89.303 25.9624 96.5635 36.2803 97.2325 48.6951C97.876 60.6342 95.1487 73.9932 82.9431 78.3263C88.2019 71.2399 83.9538 48.6943 73.0807 49.813C40.678 53.1464 36.0247 131.883 74.6771 168.225Z" stroke="black" stroke-width="12" stroke-linecap="round" stroke-linejoin="round"/>
</svg>

<svg xmlns="http://www.w3.org/2000/svg" width="192" height="192" fill="none"><path stroke="#000" stroke-linecap="round" stroke-linejoin="round" stroke-width="12" d="M117.384 23.85c85.272 28.536 55.143 143.412-6.14 142.402-8.485-.139-15.746-10.457-16.415-22.872-.644-11.94 2.084-25.298 14.29-29.631-5.26 7.085-1.012 29.632 9.861 28.512 32.403-3.333 37.057-82.07-1.596-118.412M74.677 168.225c-85.272-28.537-55.143-143.412 6.14-142.402 8.486.14 15.747 10.457 16.416 22.872.643 11.94-2.084 25.298-14.29 29.631 5.259-7.086 1.01-29.632-9.862-28.513-32.403 3.333-37.056 82.07 1.596 118.412"/></svg>
